X:1
T:Pine Apple Rag
T:“Pine   Apple   Rag”
T:By SCOTT JOPLIN Composer of “Maple Leaf Rag”, and “Sugar Cane Rag.”
T:Respectfully  dedicated  to  the Five Musical  Spillers.
T:   NOTE: Do not play this piece fast. Composer.  
T:Public Domain
T:Public Domain
T:Public Domain
T:Public Domain
C:Scott Joplin
Z:Public Domain
%%score { ( 1 4 ) | ( 2 3 ) }
L:1/8
Q:1/4=84
M:2/4
K:Bb
V:1 treble nm="Piano."
V:4 treble 
V:2 bass 
V:3 bass 
V:1
!mf!"^Slow March tempo." G/FE/ (D/^C/D/"^= 100"=C/) | (B,/C/D/F/-) F2 | G/G^F/ (G/A/B) | cF- FF |: %4
!mf! [Bdg]/fe/ (d/^c/d/=c/) | (B/c/d/f/-) f/b/[fd'] | [Bdg]/fe/ (d/^c/d/e/) | %7
!<(! [Bdf]([Bf]/d/) ([Bf]/d/[Bf])!<)! |!f! (B/[eb])(B/ [eb])(B/[db]/-) | %9
 [db]/(d'/b/d/) (f/=e/f/g/) | (a/[cf])(a/ [B=eg])[Bea]/[Af]/- | [Af](A/B/ c/d/_e/f/) | %12
!mf! [Bdg]/fe/ (d/^c/d/=c/) | (B/c/d/f/-) f/b/[fd'] | [Bdg]/fe/ (d/^c/d/e/) | %15
!<(! [Bdf][Bf]/d/ ([Bf]/d/[Bf])!<)! |!f! (B/[eb])(B/ [eb])(B/[db]/-) | [db]/(d'/b/f/) (d/f/g/b/) |1 %18
 B2 c/dB/- | [DB](B/c/ d/e/)[Aef] :|2 B2 c/dB/- | [DB](F/=E/ F/^F/G/^G/) |: %22
!mf! (A/[cea])(G/ [ceg])(A/[cea]/-) | [cea]/(G/[ceg]) [Acea][Gceg] | %24
 (G/[Bdg])(F/ [Bdf])(G/[Bdg]/-) | [Bdg]/(F/[Bdf]) [GBdg][FBdf] | %26
 (f/[ac'f'])(e/ [ac'e'])(d/[fad']/-) | [fad']/(e/[ac'e']) [dfd'][cfc'] | %28
 (c/[fc'])(B/- [Bfb])[GB^cg] | [FBdf](F/=E/ F/^F/G/^G/) | (A/[c_ea])(=G/ [ceg])(A/[cea]/-) | %31
 [cea]/(G/[ceg]) [Acea][Gceg] | (G/[Bdg])(F/ [Bdf])(G/[Bdg]/-) | %33
 [Bdg]/(F/[Bdf])!<(! [GBdg][FBdf]!<)! |!f! (_G/[Be_g])(B/- [Begb])[GBeg] | %35
 (F/[Bdf])(=E/- [EB^c=e])[FBdf] | (_e/[ac'])(f/- [fad'])[eac'] |1 [db](F/=E/ F/^F/G/^G/) :|2 %38
 [db](B/c/ d/e/)[Aef] ||!mf! [Bdg]/fe/ (d/^c/d/=c/) | (B/c/d/f/-) f/b/[fd'] | %41
 [Bdg]/fe/ (d/^c/d/e/) |!<(! [Bdf]([Bf]/d/ [Bf]/d/[Bf])!<)! |!f! (B/[eb])(B/ [eb])(B/[db]/-) | %44
 [db]/(d'/b/d/) (f/=e/f/g/) | (a/[cf])(a/ [B=eg])[Bea]/[Af]/- | [Af](A/B/ c/d/_e/f/) | %47
!mf! [Bdg]/fe/ (d/^c/d/=c/) | (B/c/d/f/-) f/b/[fd'] | [Bdg]/fe/ (d/^c/d/e/) | %50
!<(! [Bdf]([Bf]/d/ [Bf]/d/[Bf])!<)! |!f! (B/[eb])(B/ [eb])(B/[db]/-) | [db]/(d'/b/f/) (d/f/g/b/) | %53
 B2 c/dB/- | [DB]2- ([DB]/[_Ac]/[GB]/[FA]/) |:[K:Eb]!mp! [B,EG]/[=A,E^F][B,EG]/- [B,EG]2 | %56
 [B,EG]/[=A,E^F][B,EG]/- [B,EG]2 | E/F_G/- (G/F/E) | ((([B,E=G]2 ([FA]/)))[Ac]/[GB]/[FA]/) | %59
 [B,EG]/[=A,E^F][B,EG]/-!<(! [B,EG][Gce]!<)! |!<(! [GBe]/[GBd][GBd]/- [GBd]!<)![dgb] | %61
!mf! b/=aa/- a/b/a | [Bg]2!>(! ([GB]/[_Ac]/[GB]/[FA]/)!>)! |!mp! [B,EG]/[=A,E^F][B,EG]/- [B,EG]2 | %64
 [B,EG]/[=A,E^F][B,EG]/- [B,EG]2 | E/F_G/- (G/F/E) | [B,E=G]2- [B,EG][_DEB] | (B/A)c/- c/=B/c | %68
 (c/_B)g/- (g/e/G) | (G/F)[Ac]/- [Ac]/B/G |1 [G,E](B,/C/ D/E/F/^F/) :|2 %71
 [G,E]2- [G,E]/[Dd]/[Ee]/[Ff]/ |:!mf! [_G_ce_g]/[Gceg][Gceg]/- [Gceg]2- | %73
 [Gceg]/[_ce]/[_G_g]/c/ e/[Gg][ce]/ | [=GBe=g]/[GBeg][GBeg]/- [GBeg]2- | %75
 [GBeg]/[eg]/[Bb]/e/ f<[Beg] | [ac']/[gb][fa]/- [fa]/[eg]/[df] | %77
 [^c=e]/[df][df]/- ([df]/[_eg]/[fa]) | ([egc']/b)[Bg]/- ([Bg]/[Af]/[Ge]) | %79
 [=A^f]/[Bg][Bg]/- [Bg]/[Dd]/[Ee]/[=F=f]/ | [_G_ce_g]/[Gceg][Gceg]/- [Gceg]2- | %81
 [Gceg]/[_ce]/[_G_g]/c/ e/[Gg][ce]/ | [=GBe=g]/[GBeg][GBeg]/- [GBeg]2- | %83
 [GBeg]/[eg]/[Bb]/e/ f<[Beg] | [ceg]/[ceg][cef]/- f/e/f | [Beg]/[Beg][Beb]/- (b/e/)g | %86
 b/ag/- (g/f/)g |1 [GBe]2- [GBe]/[Dd]/[Ee]/[Ff]/ :|2 [GBe]2 [egbe'] z!fine! |] %89
V:2
 G,/F,E,/ (D,/^C,/D,/=C,/) | (B,,/C,/D,/F,/-) F,2 | G,/G,^F,/ (G,/A,/B,) | CF,- F,F, |: %4
 B,,[F,B,D] F,,[F,B,D] | B,,[F,B,D] F,,[F,B,D] | B,,[F,B,D] F,,[F,B,D] | (B,,D,F,_A,) | %8
 G,[G,B,E] _G,[G,B,E] | [F,,F,][F,B,D] ([D,,D,][_D,,_D,]) | [C,,C,][A,CF] [C,,C,][B,C=E] | %11
 [F,,F,](C,A,,F,,) | B,,[F,B,D] F,,[F,B,D] | B,,[F,B,D] F,,[F,B,D] | B,,[F,B,D] F,,[F,B,D] | %15
 (B,,D,F,_A,) | G,[G,B,E] _G,[G,B,E] | [F,,F,][F,B,D] [F,,F,][F,B,D] |1 %18
 ([G,,G,][_G,,_G,]) [F,,F,]2 | [B,,B,] z z [F,,F,] :|2 ([G,,G,][_G,,_G,]) [F,,F,]2 | %21
 [B,,B,] z z [=B,,=B,] |: [C,C][F,A,E] [F,,F,][F,A,E] | [C,C][F,A,E] [F,,F,][F,A,E] | %24
 [B,,B,][F,B,D] [F,,F,][F,B,D] | [B,,B,][F,B,D] [F,,F,][F,B,D] | [A,,A,][F,A,E] [F,,F,][F,A,E] | %27
 [A,,A,][F,A,E] [F,,F,][F,A,E] | [B,,B,][F,B,D] [B,,B,][=E,B,^C] | [F,B,D] z z [=B,,=B,] | %30
 [C,C][F,A,E] [F,,F,][F,A,E] | [C,C][F,A,E] [F,,F,][F,A,E] | [B,,B,][F,B,D] [F,,F,][F,B,D] | %33
 [B,,B,][F,B,D] [F,,F,][F,B,D] | [E,,E,][_G,B,E] [_G,,G,][E,,E,] | %35
 [D,,D,][F,B,D] [^C,,^C,][D,,D,] | [F,,F,][F,A,E] [F,,F,][F,A,E] |1 [B,,B,] z z [=B,,=B,] :|2 %38
 [B,,B,] z z [F,,F,] || B,,[F,B,D] F,,[F,B,D] | B,,[F,B,D] F,,[F,B,D] | B,,[F,B,D] F,,[F,B,D] | %42
 (B,,D,F,_A,) | G,[G,B,E] _G,[G,B,E] | [F,,F,][F,B,D] ([D,,D,][_D,,_D,]) | %45
 [C,,C,][A,CF] [C,,C,][B,C=E] | [F,,F,]C,A,,F,, | B,,[F,B,D] F,,[F,B,D] | B,,[F,B,D] F,,[F,B,D] | %49
 B,,[F,B,D] F,,[F,B,D] | (B,,D,F,_A,) | G,[G,B,E] _G,[G,B,E] | [F,,F,][F,B,D] [F,,F,][F,B,D] | %53
 ([G,,G,][_G,,_G,]) [F,,F,]2 | B,,F, B,,2 |:[K:Eb] (E,,C,) (B,,/E,/B,,/G,,/) | %56
 (E,,C,) (B,,/E,/B,,/G,,/) | (A,,E,) (A,,E,) | (E,,/B,,/E,/G,/ B,2) | (E,,C,) B,,/E,/C, | %60
 (D,G,) (B,/G,/D,) | D,[CD] D,[CD] | G,(D,/G,/) B,2 | (E,,C,) (B,,/E,/B,,/G,,/) | %64
 (E,,C,) (B,,/E,/B,,/G,,/) | A,,2 A,,2 | (E,,/G,,/B,,/E,/) (B,,G,,) | (A,,E,) A,,=A,, | B,,2 B,,2 | %69
 (B,,B,,,) (B,,B,,,) |1 [E,,B,,E,] z [B,,F,A,]2 :|2 ([E,,B,,E,]G,,B,,E,) |: (_C,_D,E,_G,) | %73
 (_C_G,E,_C,) | (B,,E,F,=G,) | (B,G,E,B,,) | [D,,D,][A,B,D] [B,,,B,,][A,B,D] | %77
 [B,,B,][A,B,D] [B,,,B,,][A,B,D] | [E,,E,][G,B,E] [B,,,B,,][G,B,E] | [E,,E,][G,B,E] [G,B,] z | %80
 (_C,_D,E,_G,) | (_C_G,E,_C,) | (B,,E,F,=G,) | (B,G,E,B,,) | (A,,C,E,A,) | (B,,E,G,B,) | %86
 [F,,F,][A,B,D] [B,,,B,,][A,B,D] |1 ([E,,E,]G,,B,,E,) :|2 [E,,E,]B,, E,, z |] %89
V:3
 x4 | x4 | x4 | x4 |: x4 | x4 | x4 | x4 | [G,,G,]2 [_G,,_G,]2 | x4 | x4 | x4 | x4 | x4 | x4 | x4 | %16
 [G,,G,]2 [_G,,_G,]2 | x4 |1 x4 | x4 :|2 x4 | x4 |: x4 | x4 | x4 | x4 | x4 | x4 | x4 | x4 | x4 | %31
 x4 | x4 | x4 | x4 | x4 | x4 |1 x4 :|2 x4 || x4 | x4 | x4 | x4 | [G,,G,]2 [_G,,_G,]2 | x4 | x4 | %46
 x4 | x4 | x4 | x4 | x4 | [G,,G,]2 [_G,,_G,]2 | x4 | x4 | B,2- B,2 |:[K:Eb] x4 | x4 | A,,2 A,,2 | %58
 E,,2 z2 | x4 | x4 | D,2 D,2 | [B,D]2 x2 | x4 | x4 | (A,,E,) (A,,E,) | x4 | A,,2 x2 | %68
 (B,,B,) (B,,B,) | x4 |1 x4 :|2 x4 |: x4 | x4 | x4 | x4 | x4 | x4 | x4 | x4 | x4 | x4 | x4 | x4 | %84
 x4 | x4 | x4 |1 x4 :|2 x4 |] %89
V:4
 x4 | x4 | x4 | x4 |: x4 | x4 | x4 | x4 | x4 | x2 B2 | x4 | x4 | x4 | x4 | x4 | x4 | x4 | x4 |1 %18
 (=E_E) [EA]>D- | x4 :|2 (=E_E) [EA]>D- | x4 |: x4 | x4 | x4 | x4 | x4 | x4 | x4 | x4 | x4 | x4 | %32
 x4 | x4 | x4 | x4 | x4 |1 x4 :|2 x4 || x4 | x4 | x4 | x4 | x4 | x2 B2 | x4 | x4 | x4 | x4 | x4 | %50
 x4 | x4 | x4 | (=E_E) [EA]>D- | x2 D2 |:[K:Eb] x4 | x4 | [CE]>[CE]- [CE]2 | x2 D2 | x4 | x4 | %61
 [c^f]>[cf]- [cf][cf] | x2 D2 | x4 | x4 | [CE]>[CE]- [CE]2 | x4 | [CE]>[EA]- [EA][E^F] | %68
 [EG]>[Be]- [Be]E | [A,D]>D- D[A,D] |1 x4 :|2 x4 |: x4 | x4 | x4 | x4 | x4 | x4 | x4 | x4 | x4 | %81
 x4 | x4 | x4 | x2 [ce][_ce] | x2 [Be][Be] | [Bd]>[Ad]- [Ad][Ad] |1 x4 :|2 x4 |] %89

